X:1
T:Title
%%score { ( 1 3 ) | ( 2 4 ) }
L:1/8
Q:1/4=100
M:4/4
K:F
V:1 treble nm="Grand Piano"
V:3 treble 
V:2 bass 
V:4 bass 
V:1
 [CFA]2 [CFA]2 [CEG]2 [A,DF]2 | [CEG]3 [CEG] [CFA]4 | [DFB]2 [CGB]2 [CFA]2 [CEG]2 | %3
w: Caryl~Florio * * *|||
 [CFA]3 [CFA] [B,FB]4 | [Fd]2 [DFd]2 [Fc]2 [FB]2 | [EA]2 [EG]2 [DF]4 | %6
w: |||
 [DB]2 [DA]2 [G,DG]2 [G,DF]2 | [G,CE]2 [F,=B,D]2 [E,C]4 | [E,C]2 [E,C]2[K:treble] [F,CF]2 [A,DF]2 | %9
w: |||
 G4 z4 | D2 [F,D]2 [G,DG]2 [CG]2 | A4 z4 | [Gd]3 [Gd] [Gc]2 [CGB]2 | %13
w: ||||
 [CFB]2 [CFA]2 [CFc]2 [DFB][CFA] | [B,EG]2 [A,DF]2 [B,EG]2 [CEA]2 | [B,EG]4 [A,F]4 |] %16
w: |||
V:2
 F,2 F,2 C,2 D,2 | C,3 C, F,4 | D,2 E,2 F,2 C,2 | F,3 F, D,4 | [B,,B,]2 B,,2 [A,,A,]2 [D,B,]2 | %5
 [C,C]2 [C,B,]2 [D,A,]4 | [G,,G,]2 [A,,^F,]2 B,,2 =B,,2 | C,2 G,,2 C,4 | C,2 B,,2 A,,2 D,2 | %9
 B,,2 z G F,2 _E,2 | D,2 C,2 B,,2 _E,2 | C,2 z[K:treble] A z2[K:bass] F,2 | %12
 [E,B,]3 [E,B,] [E,B,]2 E,2 | F,2 F,2 A,,2 B,,B,, | C,2 C,2 C,2 C,2 | C,4 F,4 |] %16
V:3
 x8 | x8 | x8 | x8 | x8 | x8 | x8 | x8 | x4[K:treble] x4 | [G,D]2 [CE]2 [CFA]4 | x8 | %11
 [A,_E]2 [^F,D]2 [DB]4 | x8 | x8 | x8 | x8 |] %16
V:4
 x8 | x8 | x8 | x8 | x8 | x8 | x8 | x8 | x8 | z2 C,2 z4 | x8 | z2 D,2[K:treble] G,4[K:bass] | x8 | %13
 x8 | x8 | x8 |] %16

